public/beer.svg

<svg fill="none" height="64" viewBox="0 0 64 64" width="64" xmlns="http://www.w3.org/2000/svg"><path d="m23 26.1672c0-3.4614 1.79-6.6765 4.7321-8.5l1.0179-.6308.3422-10.07036c.0183-.53875.4603-.96604.9994-.96604h4.8168c.5391 0 .9811.42729.9994.96604l.3422 10.07036 1.0179.6308c2.9421 1.8235 4.7321 5.0386 4.7321 8.5v28.8328c0 1.1046-.8954 2-2 2h-15c-1.1046 0-2-.8954-2-2z" fill="#774c3a"/><path d="m23 29h16v19h-16z" fill="#fac509"/></svg>

<svg width="64" height="64" viewBox="0 0 64 64" fill="none" xmlns="http://www.w3.org/2000/svg">
<rect width="64" height="64" fill="white"/>
<path d="M23 26.1672C23 22.7058 24.79 19.4907 27.7321 17.6672L28.75 17.0364L29.0922 6.96604C29.1105 6.42729 29.5525 6 30.0916 6H34.9084C35.4475 6 35.8895 6.42729 35.9078 6.96604L36.25 17.0364L37.2679 17.6672C40.21 19.4907 42 22.7058 42 26.1672V55C42 56.1046 41.1046 57 40 57H25C23.8954 57 23 56.1046 23 55V26.1672Z" fill="#774C3A"/>
<rect x="23" y="29" width="16" height="19" fill="#FAC509"/>
</svg>
